!!!SOCIAL_FUNCTION:	songs used in treatment of the sick
!!!PDT:	1918

Specific Region: Dakotas, Minnesota, Montana, Nebraska
!!!REG: Dakotas and Montana
!!!LING_GROUP: Siouan
!!!LANG: Tone
!!!OTL@ENG: I Am Sitting
!!!ONM: No. 82
**kern
*Imale
*clefF4
*k[b-e-]
*M4/8
*MM184
16G
=1
8c
8c
8c
8c
=2||
*M3/8
(4c
16B-)
16B-
=3||
*M4/8
8B-
8B-
8c
8c
=4||
*M3/8
4.c
=5||
*M4/8
8c
8c
8e-
8c
=6||
*M3/8
(4c
16B-)
16c
=7||
*M4/8
8B-
8B-
8B-
8B-
=8
[2G
=9||
*M3/8
4.G]
=10
8B-
8B-
16B-
16B-
=11||
*M4/8
4B-
8B-
8G
=12
4B-
8B-
(16B-
16G)
=13
([4.B-
16B-]
16G)
=14
4.G
==
*-
!!!CNT: Native American -- Sioux
!!!MRD: 1911/07//-1914///
!!!OCL: Frances Densmore
!!!YOR1: Teton Sioux Music, Bulletin 61,
!!!YOR2: Bureau of American Ethnology, Smithsonian Institution
!!!PPR: Government Printing Office
!!!PPP: Washington, D.C.
!!!PDT: 1918///
!!!ENC: Craig Stuart Sapp
!!!END: 2002/03/25/
!!!EEV: 2002/03/31/
!!!AGN: Song of Personal Dreams/Song Used in Treatment of the Sick
!!!MPN@@SIO: Wangbli'-waha'chungka
!!!MPN@ENG: Eagle Shield
!!!TXO: Teton Sioux
!!!MLC: Standing Rock Reservation, South Dakota, United States of America
!!!ARL: 45.9/-100.7#
!!!catalog: Catalogue No. 515
!!!PPG: 256
!!!EFL: 82/245
!!!VTS: 687857635
